public/images/Symbol.svg

<svg width="697" height="799" fill="none" xmlns="http://www.w3.org/2000/svg"><g clip-path="url(#clip0_22728_11332)" fill-rule="evenodd" clip-rule="evenodd"><path d="M245.112 340h186.97c53.711 0 98.536 22.912 126.408 61.63 27.85 38.72 28.709 103.326 12.468 153.868l-20.764 64.525C541.522 646.966 500.918 774.384 493 799H391s1.559 1.366 86.767-263.5c7.523-23.374 11.819-61.315 0-77.723-11.799-16.407-31.707-26.117-58.049-26.117H266.886c-30.01 0-56.603 19.518-65.887 48.345L245.112 340z" fill="url(#paint0_linear_22728_11332)"/><path d="M99.344 799H-.368C84.498 532.509 170.329 266.331 255.698 0h99.578a633.16 633.16 0 01-1.277 4.006C215.866 429.03 262.985 285.497 99.344 799z" fill="#F0145A"/></g><defs><linearGradient id="paint0_linear_22728_11332" x1="521.823" y1="798.999" x2="268.503" y2="516.696" gradientUnits="userSpaceOnUse"><stop stop-color="#F0145A"/><stop offset="1" stop-color="#693264"/></linearGradient><clipPath id="clip0_22728_11332"><path fill="#fff" d="M0 0h697v799H0z"/></clipPath></defs></svg>

<svg width="697" height="799" viewBox="0 0 697 799" fill="none" xmlns="http://www.w3.org/2000/svg">
<g clip-path="url(#clip0_22728_11332)">
<path fill-rule="evenodd" clip-rule="evenodd" d="M245.112 340H432.082C485.793 340 530.618 362.912 558.49 401.63C586.34 440.35 587.199 504.956 570.958 555.498L550.194 620.023C541.522 646.966 500.918 774.384 493 799H391C391 799 392.559 800.366 477.767 535.5C485.29 512.126 489.586 474.185 477.767 457.777C465.968 441.37 446.06 431.66 419.718 431.66H266.886C236.876 431.66 210.283 451.178 200.999 480.005L245.112 340Z" fill="url(#paint0_linear_22728_11332)"/>
<path fill-rule="evenodd" clip-rule="evenodd" d="M99.3445 799H-0.369385C84.4982 532.509 170.329 266.331 255.698 0H355.276C354.856 1.33198 354.431 2.6675 353.999 4.00646C215.866 429.03 262.985 285.497 99.3445 799Z" fill="#F0145A"/>
</g>
<defs>
<linearGradient id="paint0_linear_22728_11332" x1="521.823" y1="798.999" x2="268.503" y2="516.696" gradientUnits="userSpaceOnUse">
<stop stop-color="#F0145A"/>
<stop offset="1" stop-color="#693264"/>
</linearGradient>
<clipPath id="clip0_22728_11332">
<rect width="697" height="799" fill="white"/>
</clipPath>
</defs>
</svg>
